pro/src/icons/full-duplicate.svg

<svg width="48" height="48" viewBox="0 0 48 48" fill="none" xmlns="http://www.w3.org/2000/svg">
  <g id="icon" fill="currentColor">
    <path d="M10.9484 35.9982H11.6613V13.8372C11.6613 11.3968 13.7483 9.41857 16.3226 9.41857H32.8164V8.8C32.8164 6.70132 31.0486 5 28.868 5H10.9484C8.76775 5 7 6.70132 7 8.8V32.1982C7 34.2969 8.76775 35.9982 10.9484 35.9982Z"/>
    <path d="M18.6258 12.2381C16.5663 12.2381 14.8968 13.8121 14.8968 15.7537V39.4843C14.8968 41.426 16.5663 43 18.6258 43H37.271C39.3305 43 41 41.426 41 39.4843V15.7537C41 13.8121 39.3305 12.2381 37.271 12.2381H18.6258Z"/>
  </g>
</svg>

<svg xmlns="http://www.w3.org/2000/svg" width="48" height="48" fill="none"><g id="icon" fill="currentColor"><path d="M10.948 35.998h.713v-22.16c0-2.441 2.087-4.42 4.662-4.42h16.493V8.8c0-2.099-1.767-3.8-3.948-3.8h-17.92C8.768 5 7 6.701 7 8.8v23.398c0 2.099 1.768 3.8 3.948 3.8"/><path d="M18.626 12.238c-2.06 0-3.73 1.574-3.73 3.516v23.73c0 1.942 1.67 3.516 3.73 3.516H37.27C39.331 43 41 41.426 41 39.484v-23.73c0-1.942-1.67-3.516-3.729-3.516z"/></g></svg>
